X: 11721
T: El Soldáu
R: slip jig
M: 9/8
K: Gmajor
GBB BAB cBA|G2E DBB c2A|G2B BAB cBA|
G2E DBB A2G:|G2B BAB c2B|d2c B2A G3|
[M:6/8]=F2B BAB|[M:9/8]G2=F- F3- F2B|BAB cBA G2D:|

